X:8
T:Watermans
S:Michael McGoldrick - Fused
Z:robin.beech@mcgill.ca
R:seven-eight
M:7/8
L:1/8
K:Em
E2B2 BAG | AA GA BBE | GA AA AGA | Bc BG AGF |
E2B2 BAG | AA GA BBE | GA AA ABG | AB GF EED ::
g2e2 efg | f2 B2 BAB | c2 A2 ABG | AB cd eaf |
g2e2 efg | f2 BA cdB | c2 A2 ABG | AB GF EGB |
g2e2 efg | a2 gf efd | ab ag fga | g2 fe fdB |
g2e2 efg | f2BA cdB | c2A2 ABG | ABGF EED |]
